X: 1
T: Class composition Jig
R: jig
M: 6/8
L: 1/8
K: Dmaj
C: Sean Wahl
| B |: AFD ECA, | DFA Bcd | AFD BAG | FED E2B | 
AFD ECA, | DFA Bcd | AFD GEC |1 D2E F2B :|2 D2E F2 G | 
ECA, GFE | DB,G, G,A,G, | ECA, GFE | D2E F2 G | 
ECA, GFE | DB,G, A,B,D | ECA, DB,G, | A,3 A,2F | 
ECA, GFE | DB,G, G,A,G, | ECA Bcd | c2A Bcd | 
ecA dB^G | AEC FDB, | ECA, DB,G, | A,2C E2B ||


